hosted_logos/hcl.svg

<svg xmlns="http://www.w3.org/2000/svg" role="img" viewBox="-3.06 -3.06 158.99 33.99"><g fill="#0F5FDC" clip-path="url(#clip0_8452_9099)"><path d="M21.291.31262V27.6153h-5.8927V16.1875H5.85539v11.4278H0V.31262h5.85539V11.1548h9.54291V.31262h5.8927zM24.4744 13.964C24.4744 4.75973 30.4266 0 37.2132 0c6.3893 0 11.0701 3.90109 11.7604 9.78995h-5.6989c-.3626-2.84641-2.8681-4.75973-6.0615-4.75973-4.1023 0-7.2609 3.08216-7.2609 8.93128 0 5.8492 3.1586 8.8941 7.2609 8.8941 3.2679 0 5.771-1.9108 6.208-4.72h5.4457c-.4719 5.8516-5.1552 9.79-11.6512 9.79-6.8959 0-12.7413-4.7598-12.7413-13.9641v.0025zm53.7961-8.54913h-8.0803V.38464h22.0136v5.03023h-8.0804V27.6873H78.268V5.41487h.0025zM108.931 21.0193c-.78 4.251-4.527 6.9832-9.367 6.9832-6.6749 0-10.1092-5.2262-10.1092-10.1795 0-4.9533 3.0444-10.10266 9.7193-10.10266 6.6749 0 9.7189 5.10966 9.7189 9.59636 0 .742-.039 1.3252-.077 1.7545H94.6869c.3899 2.7695 2.1455 4.4868 4.8795 4.4868 2.1856 0 3.6306-.8587 4.0596-2.5362h5.31l-.005-.0025zm-14.1696-5.3826h8.7036c-.156-2.1838-1.679-3.9408-4.2934-3.9408-2.4584 0-3.9433 1.2085-4.4102 3.9408zm16.6966 2.221c0-5.7325 4.061-10.14237 10.149-10.14237 5.153 0 9.25 3.11937 9.603 7.68307h-5.466c-.313-1.7545-1.991-3.0425-3.98-3.0425-2.928 0-4.644 2.3005-4.644 5.4993s1.756 5.462 4.723 5.462c1.992 0 3.591-1.2085 3.981-2.9655h5.542c-.586 4.3676-4.643 7.6458-9.756 7.6458-6.089 0-10.149-4.4073-10.149-10.1423l-.003.0025zM134.267.35242h5.425V10.7603c1.133-1.91085 3.278-3.04247 6.012-3.04247 4.41 0 7.298 3.19877 7.298 7.72277v12.2467h-5.425V16.6491c0-2.3798-1.562-4.0946-3.825-4.0946-2.381 0-4.06 1.8339-4.06 4.3676v10.7652h-5.425V.35242zM58.2734 22.5454V.31262H52.418V22.389c0 3.3924 1.8351 5.2263 5.2296 5.2263H70.158v-5.0699H58.2734z"/></g><defs><clipPath id="clip0_8452_9099"><path fill="#fff" d="M0 0h153v28H0z"/></clipPath></defs></svg>

<svg xmlns="http://www.w3.org/2000/svg" viewBox="0 0 153 28" fill="none"><g clip-path="url(#clip0_8452_9099)"><path d="M21.291 0.312622V27.6153H15.3983V16.1875H5.85539V27.6153H0V0.312622H5.85539V11.1548H15.3983V0.312622H21.291Z" fill="#0F5FDC"/><path d="M24.4744 13.964C24.4744 4.75973 30.4266 0 37.2132 0C43.6025 0 48.2833 3.90109 48.9736 9.78995H43.2747C42.9121 6.94354 40.4066 5.03022 37.2132 5.03022C33.1109 5.03022 29.9523 8.11238 29.9523 13.9615C29.9523 19.8107 33.1109 22.8556 37.2132 22.8556C40.4811 22.8556 42.9842 20.9448 43.4212 18.1356H48.8669C48.395 23.9872 43.7117 27.9256 37.2157 27.9256C30.3198 27.9256 24.4744 23.1658 24.4744 13.9615V13.964Z" fill="#0F5FDC"/><path d="M78.2705 5.41487H70.1902V0.384644H92.2038V5.41487H84.1234V27.6873H78.268V5.41487H78.2705Z" fill="#0F5FDC"/><path d="M108.931 21.0193C108.151 25.2703 104.404 28.0025 99.564 28.0025C92.8891 28.0025 89.4548 22.7763 89.4548 17.823C89.4548 12.8697 92.4992 7.72034 99.1741 7.72034C105.849 7.72034 108.893 12.83 108.893 17.3167C108.893 18.0587 108.854 18.6419 108.816 19.0712H94.6869C95.0768 21.8407 96.8324 23.558 99.5664 23.558C101.752 23.558 103.197 22.6993 103.626 21.0218H108.936L108.931 21.0193ZM94.7614 15.6367H103.465C103.309 13.4529 101.786 11.6959 99.1716 11.6959C96.7132 11.6959 95.2283 12.9044 94.7614 15.6367Z" fill="#0F5FDC"/><path d="M111.458 17.8577C111.458 12.1252 115.519 7.71533 121.607 7.71533C126.76 7.71533 130.857 10.8347 131.21 15.3984H125.744C125.431 13.6439 123.753 12.3559 121.764 12.3559C118.836 12.3559 117.12 14.6564 117.12 17.8552C117.12 21.054 118.876 23.3172 121.843 23.3172C123.835 23.3172 125.434 22.1087 125.824 20.3517H131.366C130.78 24.7193 126.723 27.9975 121.61 27.9975C115.521 27.9975 111.461 23.5902 111.461 17.8552L111.458 17.8577Z" fill="#0F5FDC"/><path d="M134.267 0.352417H139.692V10.7603C140.825 8.84945 142.97 7.71783 145.704 7.71783C150.114 7.71783 153.002 10.9166 153.002 15.4406V27.6873H147.577V16.6491C147.577 14.2693 146.015 12.5545 143.752 12.5545C141.371 12.5545 139.692 14.3884 139.692 16.9221V27.6873H134.267V0.352417Z" fill="#0F5FDC"/><path d="M58.2734 22.5454V0.312622H52.418V22.389C52.418 25.7814 54.2531 27.6153 57.6476 27.6153H70.158V22.5454H58.2734Z" fill="#0F5FDC"/></g><defs><clipPath id="clip0_8452_9099"><rect width="153" height="28" fill="white"/></clipPath></defs></svg>
